!!!COM: Bach, Johann Sebastian
!!!OTA: Das wohltemperirte Clavier
!!!OPR: Das wohltemperierte Klavier
!!!OTL: Fuga 10, Vol. 2
!!!XEN: The Well-Tempered Clavier, Volume 2, Fugue 10.
!!!ONB: E minor, 3-part
!!!SCT: BWV 879b
!!!YEC: Copyright 1994, David Huron
!!!YEM: Rights to all derivative electronic formats reserved.
**kern	**kern	**kern
*staff2	*staff1	*staff1
*clefF4	*clefG2	*clefG2
*k[f#]	*k[f#]	*k[f#]
*M2/2	*M2/2	*M2/2
*e:	*e:	*e:
*MM130	*MM130	*MM130
4r	4r	12r
.	.	12e
.	.	12f#
=1	=1	=1
1r	1r	4g'
.	.	16a
.	.	16g
.	.	16f#
.	.	16g
.	.	4a'
.	.	16b
.	.	16a
.	.	16g
.	.	16a
=2	=2	=2
1r	1r	4b'
.	.	4g'
.	.	4e'
.	.	[4cc
=3	=3	=3
1r	1r	4cc]
.	.	6b
.	.	12dd#
.	.	4ee'
.	.	[4a
=4	=4	=4
1r	1r	4a]
.	.	6g
.	.	12dd#
.	.	4ee'
.	.	[4f#
=5	=5	=5
1r	1r	12f#]
.	.	12g
.	.	12a
.	.	12g
.	.	12f#
.	.	12e
.	.	12d#
.	.	12cc
.	.	12b
.	.	12a
.	.	12g
.	.	12f#
=6	=6	=6
1r	2r	12g
.	.	12a
.	.	12b
.	.	12a
.	.	12g
.	.	12f#
.	4r	12e
.	.	12ee
.	.	12dd
.	12r	12cc#
.	12B	12b
.	12c#	12a#
=7	=7	=7
1r	4d'	12b
.	.	12dd
.	.	12ff#
.	16e	4gg#'
.	16d	.
.	16c#	.
.	16d	.
.	4e'	12cc#
.	.	12ee
.	.	12ggn
.	16f#	4aa#'
.	16e	.
.	16d	.
.	16e	.
=8	=8	=8
1r	4f#'	12dd
.	.	12ff#
.	.	12aa#
.	4d'	[4bb
.	4B'	12bb]
.	.	12aan
.	.	12gg
.	[4g	12ff#
.	.	12ee
.	.	12dd#
=9	=9	=9
1r	4g]	2ee
.	6f#	.
.	12a#	.
.	4b	2ddn
.	[4e	.
=10	=10	=10
1r	4e]	2cc#
.	6d	.
.	12a#	.
.	4b	2b
.	[4c#	.
=11	=11	=11
1r	12c#]	4a#
.	12d	.
.	12e	.
.	12d	4b
.	12c#	.
.	12B	.
.	12A#	[2cc#
.	12g	.
.	12f#	.
.	12e	.
.	12d	.
.	12c#	.
=12	=12	=12
2r	12d	4cc#]
.	12e	.
.	12f#	.
.	12e	6ff#
.	12d	.
.	12c#	12a#
4r	12B	[2b
.	12an	.
.	12g	.
12r	12f#	.
12E	12e	.
12F#	12d#	.
=13	=13	=13
4G'	2e	12b]
.	.	12g
.	.	12b
16A	.	[4cc#
16G	.	.
16F#	.	.
16G	.	.
4A'	2f#	12cc#]
.	.	12a
.	.	12ccn
16B	.	4dd#
16A	.	.
16G	.	.
16A	.	.
=14	=14	=14
4B'	2g	12dd
.	.	12b
.	.	12dd#
4G'	.	[4ee
4E'	12g#	2ee_
.	12ddn	.
.	12cc	.
[4c	12b	.
.	12a	.
.	12g#	.
=15	=15	=15
4c]	2a	12ee]
.	.	12dd#
.	.	12ee
6B	.	[4ff#
12d#	.	.
4e	2gn	12ff#]
.	.	12ee
.	.	12ddn
[4A	.	12cc#
.	.	12dd#
.	.	12ee
=16	=16	=16
4A]	2f#	12dd#
.	.	12ee
.	.	12ff#
6G	.	[4b
12d#	.	.
4e	2e	12b]
.	.	12a
.	.	12g
[4F#	.	12a
.	.	12b
.	.	[12cc
=17	=17	=17
12F#]	4d#	4cc]
12G	.	.
12A	.	.
12G	4e	12b
12F#	.	12a
12E	.	12g
12D#	[2f#	4a
12c	.	.
12B	.	.
12A	.	4d#
12G	.	.
12F#	.	.
=18	=18	=18
12G	6f#]	[2b
12A	.	.
12B	12d#	.
12A	6e	.
12G	.	.
12F#	12f#	.
12E	[2g	6b]
12d	.	.
12c	.	12e
12B	.	6d#
12A	.	.
12G	.	12e
=19	=19	=19
12A	6g]	[2cc
12B	.	.
12c	12e	.
12B	6f#	.
12A	.	.
12G	12g	.
12F#	[2a	6cc]
12e	.	.
12d	.	12f#
12c	.	6e
12B	.	.
12A	.	12f#
=20	=20	=20
12B	6a]	[2dd
12c	.	.
12d	12f#	.
12c	6g	.
12B	.	.
12A	12a	.
12G	4b	12dd]
12B	.	12g
12d	.	12a
4g	4r	12b
.	.	12cc
.	.	12dd
=21	=21	=21
4c	12r	[2ee
.	12dd	.
.	12cc	.
4e	12b	.
.	12a	.
.	12g	.
12F#	4a	12ee]
12A	.	12f#
12c	.	12g
4f#	4r	12a
.	.	12b
.	.	12cc
=22	=22	=22
4B	12r	[2dd
.	12cc	.
.	12b	.
4d	12a	.
.	12g	.
.	12f#	.
12E	4g	12dd]
12G	.	12e
12B	.	12f#
4e	4r	12g
.	.	12a
.	.	12b
=23	=23	=23
4A	12r	[2cc
.	12b	.
.	12a	.
4c	12g	.
.	12f#	.
.	12e	.
12D	4f#	12cc]
12F#	.	12d
12A	.	12e
4d	4r	12f#
.	.	12g
.	.	12a
=24	=24	=24
2G	12r	4b'
.	12B	.
.	12d	.
.	[4e	16cc
.	.	16b
.	.	16a
.	.	16b
2A	12e]	4cc'
.	12c	.
.	12e	.
.	[4f#	16dd
.	.	16cc
.	.	16b
.	.	16cc
=25	=25	=25
4B	12f#]	4dd
.	12d	.
.	12f#	.
4r	12g	4b
.	12G	.
.	12B	.
2r	12e	4g
.	12E	.
.	12F#	.
.	12G	[4ee
.	12A	.
.	12B	.
=26	=26	=26
12r	2c	4ee]
12A	.	.
12G	.	.
12F#	.	6dd
12G	.	.
12A	.	12ff#
12r	2B	4gg
12G	.	.
12F#	.	.
12E	.	[4cc
12F#	.	.
12G	.	.
=27	=27	=27
12r	2A	4cc]
12F#	.	.
12E	.	.
12D	.	6b
12E	.	.
12C	.	12ff#
4BB	12r	4gg
.	12D	.
.	[12G	.
*strophe	*	*
*^	*	*
*S/sic	*S/ossia	*	*
4C#xx	4Cxx	12G]	[4a
.	.	12F#	.
.	.	12G	.
*S/fin	*S/fin	*	*
*v	*v	*	*
*S-	*	*
=28	=28	=28
2D	4F#	12a]
.	.	12b
.	.	12cc
.	4G	12b
.	.	12a
.	.	12g
4r	4A	12f#
.	.	12ee
.	.	12dd
4D	4F#	12cc
.	.	12b
.	.	12a
=29	=29	=29
[4G	6G	12b
.	.	12cc
.	12B	12dd
6G]	2d	12cc
.	.	12b
12F#	.	12a
4E	.	12g
.	.	12gg
.	.	12ff#
4A	12c#	12ee
.	12d	12dd
.	12e	12cc#
=30	=30	=30
12D	4f#	4dd
12F#	.	.
12A	.	.
4B	16g	4r
.	16f#	.
.	16e	.
.	16f#	.
12E	4g	4cc#
12G	.	.
*strophe	*	*
*^	*	*
*S/sic	*S/ossia	*	*
12A	12B	.	.
*S/fin	*S/fin	*	*
*v	*v	*	*
*S-	*	*
4c#	16a	4r
.	16g	.
.	16f#	.
.	16g	.
=31	=31	=31
12F#	4a	4ccn
12G	.	.
12A	.	.
4d	4f#	4r
12r	4d	4b
12cn	.	.
12B	.	.
12A	[4b	4dd
12G	.	.
12F#	.	.
=32	=32	=32
12E	4b]	2gg
12G	.	.
12B	.	.
12c#	6a	.
12e	.	.
12A	12cc#	.
12D	4dd	2ff#
12d	.	.
12c#	.	.
12B	[4g	.
12A	.	.
12G	.	.
=33	=33	=33
12C#	4g]	2ee
12E	.	.
12G	.	.
12A	6f#	.
12c#	.	.
12F#	12cc#	.
12BB	4dd	2dd
12B	.	.
12A	.	.
12G	[4e	.
12F#	.	.
12E	.	.
=34	=34	=34
2A	12e]	4cc#
.	12f#	.
.	12g	.
.	12f#	4dd
.	12e	.
.	12d	.
4r	12c#	[2ee
.	12b	.
.	12a	.
4c#	12g	.
.	12f#	.
.	12e	.
=35	=35	=35
2d	12f#	6ee]
.	12g	.
.	12a	12cc#
.	12g	6dd
.	12f#	.
.	12e	12ee
4r	12d	[2ff#
.	12ccn	.
.	12b	.
4d#	12a	.
.	12g	.
.	12f#	.
=36	=36	=36
2e	12g	6ff#]
.	12a	.
.	12b	12dd#
.	12a	6ee
.	12g	.
.	12f#	12ff#
4r	12e	4gg
.	12ddn	.
.	12cc#	.
4e#	12b	[4cc#
.	12a#	.
.	12g#	.
=37	=37	=37
[2f#	4a#	12cc#]
.	.	12dd
.	.	12ee
.	4b	12dd
.	.	12cc#
.	.	12b
12f#]	4cc#	4aa#
12g	.	.
12f#	.	.
12e	[4cc#	4cc#S
12d	.	.
12c#	.	.
=38	=38	=38
[2d	12cc#]	2.ff#
.	12ee	.
.	12dd	.
.	12cc#	.
.	12b	.
.	12a#	.
12d]	4b	.
12e	.	.
12d	.	.
12c#	4cc#	[4ee
12B	.	.
12A#	.	.
=39	=39	=39
[2B	2f#	12ee]
.	.	12ff#
.	.	12ee
.	.	12dd
.	.	12cc#
.	.	12b
12B]	4r	[2ff#
12cn	.	.
12B	.	.
12A	4f#	.
12G	.	.
12F#	.	.
=40	=40	=40
[2G	2b	12ff#]
.	.	12gg
.	.	12ff#
.	.	12ee
.	.	12dd#
.	.	12cc#
12G]	4cc#	[2aa
12A	.	.
12G	.	.
12F#	12dd#	.
12E	12ee	.
12D#	12ff#	.
=41	=41	=41
12E	4b	4aa]
12F#	.	.
12E	.	.
12Dn	[4ee	4gg
12C#	.	.
12BB	.	.
12AA#	12ee]	[2ff#
12FF#	12ee	.
12GG#	12dd	.
12AA#	12cc#	.
12BB	12b	.
12C#	12a#	.
=42	=42	=42
4D'	12b	2ff#]
.	12dd	.
.	12b	.
16E	4g#	.
16D	.	.
16C#	.	.
16D	.	.
4E'	[2cc#	12r
.	.	12ee
.	.	12g#
16F#	.	4a#
16E	.	.
16D	.	.
16E	.	.
=43	=43	=43
4F#'	4cc#]	12dd
.	.	12ff#
.	.	12a#
4D'	[4b	[4b
4BB'	12b]	2b_
.	12an	.
.	12g	.
[4G	12f#	.
.	12e	.
.	12d#	.
=44	=44	=44
4G]	2e	12b]
.	.	12cc#
.	.	12b
6F#	.	12a#
.	.	12g#
12A#	.	12f#
4B	2d	12r
.	.	12b
.	.	12an
[4E	.	12gn
.	.	12f#
.	.	12e
=45	=45	=45
4E]	2c#	12a#
.	.	12f#
.	.	12g#
6D	.	12a#
.	.	12b
12A#	.	12cc#
4B	2B	12dd
.	.	12c#
.	.	12d
[4C#	.	12e
.	.	12f#
.	.	[12gn
=46	=46	=46
12C#]	4A#	4g]
12D	.	.
12E	.	.
12D	4B	12f#
12C#	.	12e
12BB	.	12d
12AA#	[2c#	4e
12G	.	.
12F#	.	.
12E	.	4A#
12D	.	.
12C#	.	.
=47	=47	=47
12D	6c#]	[2f#
12E	.	.
12F#	12A#	.
12E	6B	.
12D	.	.
12C#	12c#	.
12BB	[2d	6f#]
12A	.	.
12G	.	12B
12F#	.	6A#
12E	.	.
12D	.	12B
=48	=48	=48
12E	6d]	[2g
12F#	.	.
12G	12B	.
12F#	6c#	.
12E	.	.
12D	12d	.
12C#	[2e	6g]
12B	.	.
12A	.	12c#
12G	.	6B
12F#	.	.
12E	.	12c#
=49	=49	=49
12F#	6e]	[2a
12G	.	.
12A	12c#	.
12G	6d#	.
12F#	.	.
12E	12e	.
12D#	[4f#	6a]
12cn	.	.
12B	.	12e
12A	12f#]	4d#
12G	12e	.
12F#	12f#	.
=50	=50	=50
12E	4g	4e
12G	.	.
12B	.	.
4c#	16a	4r
.	16g	.
.	16f#	.
.	16g	.
12F#	4a	4ccn
12A	.	.
12cn	.	.
4d#	16b	4r
.	16a	.
.	16g	.
.	16a	.
=51	=51	=51
12G	4b	4b
12B	.	.
12d#	.	.
*strophe	*	*
*^	*	*
*S/sic	*S/ossia	*	*
4e	[x4e	4g	12r
.	.	.	12ee
.	.	.	12dd
12Exx	12e]xx	4e	12cc
*S/fin	*S/fin	*	*
*v	*v	*	*
*S-	*	*
12dn	.	12b
12c	.	12a
12B	[4cc	12g#
12A	.	12a
12G#	.	12b
=52	=52	=52
2A	4cc]	12e
.	.	12f#
.	.	12e
.	6b	12d#
.	.	12e
.	12dd#	12f#
2Gn	4ee	12B
.	.	12e
.	.	12dn
.	[4a	12c#
.	.	12d#
.	.	12e
=53	=53	=53
2F#	4a]	12d#
.	.	12e
.	.	12f#
.	6g	12B
.	.	12cn
.	12dd#	12A
2E	4ee	12G
.	.	12A
.	.	12B
.	[4f#	12c
.	.	12B
.	.	12A
=54	=54	=54
4D#	12f#]	2B
.	12g	.
.	12a	.
4E	12g	.
.	12f#	.
.	12e	.
4F#	12d#	4r
.	12cc	.
.	12b	.
4BB	12a	4dd#
.	12g	.
.	12f#	.
=55	=55	=55
4E	12g	2ee
.	12a	.
.	12b	.
4F#	12a	.
.	12g	.
.	12f#	.
4G	[2e	12r
.	.	12ffn
.	.	12ee
4G#	.	12dd
.	.	12cc
.	.	12b
=56	=56	=56
4A	6e]	12cc
.	.	12dd
.	[12f#	12ee
4B	6f#]	12dd
.	.	12cc
.	12g#	12b
4c	4a	12a
.	.	12bb
.	.	12aa
4c#	[4e	12ggn
.	.	12ff#
.	.	12ee
=57	=57	=57
4D	6e]	12ff#
.	.	12gg
.	[12d	12aa
4E	6d]	12gg
.	.	12ff#
.	12c#	12ee
4F#	[2d	12dd
.	.	12ee
.	.	12dd
4D	.	12ccn
.	.	12b
.	.	12a
=58	=58	=58
4G	6d]	12b
.	.	12cc
.	[12e	12dd
4A	6e]	12cc
.	.	12b
.	12f#	12a
4B	12g	8g
.	12a	.
.	.	8r
.	12g	.
4G	12fn	4r
.	12e	.
.	12d	.
=59	=59	=59
12C	12e	2r
12D	12fn	.
12E	12g	.
12D	12f	.
12E	12e	.
12Fn	12d	.
12E	12c	4r
12G#	12d	.
12A	12c	.
4D	12B	12r
.	12A	12a
.	12G#	12b
=60	=60	=60
12C	[2A	4cc
12D	.	.
12E	.	.
4Fn	.	16dd
.	.	16cc
.	.	16b
.	.	16cc
2BB	12A]	4dd
.	12D	.
.	12Fn	.
.	4G#	16ee
.	.	16dd
.	.	16cc
.	.	16dd
=61	=61	=61
4AA	12r	4ee
.	12C	.
.	12D	.
4r	12E	4cc
.	12F#	.
.	12G#	.
12r	12A	4a
12B	6r	.
12c	.	.
12d	4r	[4ffn
12e	.	.
12fn	.	.
=62	=62	=62
12G#	2dd	4ff]
12A	.	.
12B	.	.
12c	.	6ee
12d	.	.
12e	.	12gg#
12F#	2cc	4aa
12G#	.	.
12A	.	.
12B	.	[4dd
12c	.	.
12A	.	.
=63	=63	=63
12G#	2b	4dd]
12F#	.	.
12E	.	.
12A	.	6cc
12B	.	.
12c	.	12gg#
12Fn	2a	4aa
12A	.	.
12Gn	.	.
12F	.	[4b
12G	.	.
12E	.	.
=64	=64	=64
6D	6g#	12b]
.	.	12cc
12Fn	12G#	12dd
6E	6A	12cc
.	.	12b
12D#	12c	12a
2E	12B	12g#
.	12dn	12ffn
.	12c	12ee
.	12B	12dd
.	12A	12cc
.	12G#	12b
=65	=65	=65
6AA	12A	12cc
.	6r	12dd
12E	.	12ee
6A	4r	12dd
.	.	12cc
12B	.	12b
6c	12r	[2a
.	12g	.
12A	12f#	.
6F#	12e	.
.	12d#	.
12A	12c#	.
=66	=66	=66
12BB	12d#	2a_
12C#	12e	.
12D#	12f#	.
12C#	12e	.
12F#	12d#	.
12E	12c#	.
12D#	[2B	12a]
12A	.	12d#
12G	.	12e
12F#	.	12f#
12E	.	12g
12D#	.	12a
=67	=67	=67
12E	6B]	[2g
12F#	.	.
12G	12B	.
12F#	6c	.
12E	.	.
12Dn	12B	.
4C#	4A#	12g]
.	.	12d#
.	.	12e
4Cn	[4An	12g
.	.	12f#
.	.	12a
=68	=68	=68
[1BB	12A]	6d#
.	12c	.
.	12B	12e
.	12A	[4f#
.	12G	.
.	12F#	.
.	[2G	12f#]
.	.	12B
.	.	12d#
.	.	12f#
*	*	*strophe
*	*	*^
*	*	*S/sic	*S/ossia
.	.	12bxx	12exx
*	*	*S/fin	*S/fin
*	*	*v	*v
*	*	*S-
.	.	12d#
=69	=69	=69
!! In measures 69 and 70 the mid-voice crosses briefly below the bass voice.
12BB]	4G]	[2e
12C#	.	.
12D#	.	.
12E	4r	.
12F#	.	.
[12G	.	.
4G_	2AA#	12e]
.	.	12g
.	.	12a#
12G]	.	12cc#
12F#	.	12dd#
12G	.	12ee
=70	=70	=70
4G	2BB;	4e
4F#M;	.	4d#M;
12r	2r	2r
12C	.	.
12BB	.	.
12AA	.	.
12GG	.	.
12FF#	.	.
=71	=71	=71
12GG	1r	12r
12AA	.	12B
12GG	.	12c#
12FF#	.	12d#
12EE	.	12e
12DD#	.	12f#
4EE	.	12g
.	.	12ccn
.	.	12b
12r	.	12a
12EE	.	12g
12FF#	.	12f#
=72	=72	=72
4GG	1r	12e
.	.	12gg
.	.	12ee
16AA	.	4cc#
16GG	.	.
16FF#	.	.
16GG	.	.
4AA	.	12f#
.	.	12aa
.	.	12ff#
16BB	.	4dd#
16AA	.	.
16GG	.	.
16AA	.	.
=73	=73	=73
4BB	2r	12g
.	.	12bb
.	.	12gg
4GG	.	12ee
.	.	12ddn
.	.	12cc#
4EE	12r	2dd
.	12b	.
.	12g#	.
[4C	12e	.
.	12f#	.
.	12g#	.
=74	=74	=74
4C]	2a	12cc
.	.	12f#
.	.	12e
6BB	.	12d#
.	.	12e
12D#	.	12f#
4E	2g	12g
.	.	12a
.	.	12b
[4AA	.	12cc
.	.	12b
.	.	12a
=75	=75	=75
4AA]	2f#	12dd#
.	.	12ee
.	.	12ff#
6GG	.	12b
.	.	12cc
12D#	.	12a
4E	2e	12g
.	.	12f#
.	.	12g
[4FF#	.	12a
.	.	12b
.	.	[12cc
=76	=76	=76
12FF#]	4d#	4cc]
12GG	.	.
12AA	.	.
12GG	4e	12b
12FF#	.	12a
12EE	.	12g
12DD#	[2f#	[2a
12C	.	.
12BB	.	.
12AA	.	.
12GG	.	.
12FF#	.	.
=77	=77	=77
12GG	6f#]	6a]
12AA	.	.
12BB	12d#	12f#
12AA	6B	6b
12GG	.	.
12FF#	12d#	12a
12EE	[2e	[2g
12E	.	.
12D	.	.
12C	.	.
12BB	.	.
12AA#	.	.
=78	=78	=78
[1BB	4e]	12g]
.	.	12b
.	.	12a
.	4r	12g
.	.	12f#
.	.	12e
.	12r	12d#
.	12D#	[6cc
.	12E	.
.	12F#	12cc]
.	12G	12e
.	12A	12d#
=79	=79	=79
4BB_	12G	12b
.	[6e	12e
.	.	12g
12BB]	4e_	[4cc#
12A#	.	.
12B	.	.
[4BB	12e]	6cc#]
.	[6f#	.
.	.	12a
12BB]	4f#_	[4dd#
12A#	.	.
12B	.	.
=80	=80	=80
[4BB	12f#]	6dd#]
.	[6g	.
.	.	12b
12BB]	4g_	[4ee
12A#	.	.
12B	.	.
[4BB	12g]	6ee]
.	[6a	.
.	.	12dd#
12BB]	4a_	[4ff#
12A#	.	.
12B	.	.
=81	=81	=81
[4BB	12a]	6ff#]
.	[6b	.
.	.	12ee
12BB]	4b]	4gg
12A#	.	.
12B	.	.
12F#	2r	2r
12G	.	.
12D#	.	.
12E	.	.
12BB	.	.
12C	.	.
=82	=82	=82
4DD#	1r	12r
.	.	12cc
.	.	12ff#
4r	.	12aa
.	.	12dd#
.	.	12ff#
2r	.	12cc
.	.	12b
.	.	12dd#
.	.	12ff#
.	.	12a
.	.	12cc
=83	=83	=83
2r	2r	12g
.	.	12f#
.	.	12a
.	.	12cc
.	.	12f#
.	.	12a
4AA;	4F#; 4B;	12e
.	.	12d#M;
.	.	12dd#S
8r	8r	[4ee
16r	16r	.
16A#	16f#	.
=84	=84	=84
[1B	[4g	12ee]
.	.	12ddn
.	.	12cc
.	12g]	12b
.	12f#	12a
.	12e	12g
.	6d#	12a
.	.	12f#
.	12e	12g
.	6f#	12a
.	.	12b
.	12e	[12cc
=85	=85	=85
12B]	12d#	12cc]
12c#	6r	12b
12d#	.	12a
12e	12r	12g
12r	12F#	12d#
12AA#	12G	[12e
2BB	[4F#	12e]
.	.	24f#
.	.	24a
.	.	12cc
.	12F#]	6d#M
.	12G	.
.	[12An	12e
=86	=86	=86
*	*^	*
!! Four-voice material until the end:
[2E	12A]	12r	1e;
.	[6G#	12B	.
.	.	12dn	.
.	12G#]	4c	.
.	12G#	.	.
.	[12A	.	.
12E]	4A]	2B;	.
12D#	.	.	.
12E	.	.	.
4EE;	4G#;	.	.
==	==	==	==
*-	*-	*-	*-
!!!CDT: 1685/3/-1750/7/28
!!!OCY: Deutschland
!!!PPP: Leipzig
!!!ODT: 1738//-1742//
!!!PDT: 1739//-1742//
!!!AFR: fuga; fugue
!!!AST: polyphony
!!!AMT: simple duple
!!!SCA: Bach-Werke-Verzeichnis
!!!YOR: Bach Gesellschaft
!!!SMS: British Library, various
!!!AIN: cemba; clavi
!!!EEV: 1.0
!!!RDT: 1986 December 3
!!!YER: 1994 August 10
!!!EFL: 34/48
!!!VTS: 772682349
